Papirus-Adapta/22x22/panel/copy-sync6.svg

<?xml version="1.0"?>
<svg xmlns="http://www.w3.org/2000/svg" xml:space="preserve" width="22" version="1.1" y="0" x="0" height="22" id="svg2">
 <defs id="defs12">
  <style type="text/css" id="current-color-scheme">
   .ColorScheme-Text { color:#cfd8dc; } .ColorScheme-Highlight { color:#00bcd4; }
  </style>
 </defs>
 <g transform="translate(-1 -1.0007)" id="g4">
  <path style="fill:currentColor" d="m19.635 2.0254l-5.617 6.8184 1.982 1.1562 4-7.6484-0.365-0.3262zm-14.635 4.4746l-4 3.5 4.375-0.625 0.9492 5.625h3.3867l-3.2109-8-1.5-0.5zm7 2.5293l-3 0.9707 1 3 4-3-2-0.9707zm3 1.5707l-5.1445 4.4h8.3435l-1.199-3-2-1.4zm-11.164 5.4c-0.4633 0-0.8359 0.373-0.8359 0.836v1.328c0 0.463 0.3726 0.836 0.8359 0.836h7.1641v-3h-7.1641zm16.1 3.334c-0.017 0.046-0.04 0.086-0.063 0.129l0.127 0.037-0.064-0.166z" transform="translate(1 1.0007)" id="path6" class="ColorScheme-Text"/>
  <path opacity=".3" style="fill:currentColor" d="m3.8359 16c-0.2317 0-0.4406 0.093-0.5918 0.244 0.1511-0.151 0.3602-0.244 0.5918-0.244zm7.1641 0v3h7.164c0.463 0 0.836-0.375 0.836-0.838v-1.326c0-0.463-0.373-0.836-0.836-0.836h-7.164z" transform="translate(1 1.0007)" id="path8" class="ColorScheme-Text"/>
 </g>
</svg>

<svg xmlns="http://www.w3.org/2000/svg" width="22" height="22" x="0" y="0" version="1.1" xml:space="preserve">
 <defs>
  <style id="current-color-scheme" type="text/css">
   .ColorScheme-Text { color:#cfd8dc; } .ColorScheme-Highlight { color:#00bcd4; }
  </style>
 </defs>
 <path style="fill:currentColor" class="ColorScheme-Text" d="M 19.635,2.0254 14.018,8.8438 16,10 20,2.3516 Z M 5,6.5 1,10 5.375,9.375 6.3242,15 9.7109,15 6.5,7 Z M 12,9.0293 9,10 l 1,3 4,-3 z M 15,10.6 9.8555,15 18.199,15 17,12 Z M 3.836,16 c -0.4633,0 -0.8359,0.373 -0.8359,0.836 l 0,1.3281 c 0,0.463 0.3726,0.836 0.8359,0.836 l 11.164,0 0,-3 -11.164,0 z"/>
 <path style="opacity:0.4;fill:currentColor" class="ColorScheme-Text" d="M 3.8359,16 C 3.6042,16 3.3953,16.093 3.2441,16.244 3.3952,16.093 3.6043,16 3.8359,16 Z m 11.16405,0 0,3 3.16405,0 C 18.627,19 19,18.625 19,18.162 l 0,-1.3262 c 0,-0.463 -0.373,-0.836 -0.836,-0.836 l -3.16395,0 z"/>
</svg>
